!!!COM: Claude Debussy
!!!CNT: Francais
!!!TXO: Francais
!!!OPR: Cinq Poe2mes de Baudelaire
!!!ONM: No. 3
!!!OTL: Le Jet d'Eau
!!!LYR: Charles Baudelaire
!!!ENC: Jacob Pegg
!!!YOR: Claude Debussy: Songs 1880-1904, Edited by Rita Benton
!!!YOR: New York: Dover publications, inc., 1981
!!!YOR: ISBN 0-486-24131-9
!!!ODT: 1889/
!!NB: Vocal melody and text only encoded.
!!NB: First instance of melodic material only encoded.
**kern	**silbe
*clef G2	*
*k[]	*
*M3/4	*
*MM[andantino]	*
!! created: 6/30/03 13:02
!! last edited: 7/10/03 13:25
!! time (min) : Input: notes 63, words 12;  Check : notes 10, words 8.
!! total edit time: about 63 min.
=1	=1
2.r	.
=2	=2
{8g	{Tes
8g	beaux
4f#	yeux
4d	sont
=3	=3
[4e	las,
8e]}	|}
8r	.
{(8g	{Pau-
8ee)	-vre a-
=4	=4
(2.cc	-man-
=5	=5
4g)}	-te!}
4r	.
4r	.
=6	=6
{4b-	{Res-
8a	-te
8a	long-
8a-	-temps
8f	sans
=7	=7
8e	les
8ee	rou-
4ee}	-vrir,}
{12dd	{Dans
12cc	cet-
12g#	-te
!!changed prior three notes to triplets to correct timing
=8	=8
8b	po-
8a	-se
8e	non-
8d	-cha-
8e	-lan-
8e}	-te}
=9	=9
8r	.
{8a	{Ou\
8e	t'a
8d	sur-
8d	-pri-
8e	-se
=10	=10
8e	le
8c	plai-
4c}	-sir.}
4r	.
=11	=11
2.r	.
=12	=12
{8b-	{Dans
8b-	la
(6b-	cour
12b-)	le
(12cc	jet
12cc	d'eau
12cc)	qui
=13	=13
[4dd-	ja-
8dd-]}	-se}
{8dd-	{Et
8ddn	ne
8ddn	se
=14	=14
8ee-	tait
8b-	ni
4b-	nuit
4g	ni
=15	=15
2f#}	jour,}
4r	.
=16	=16
{8f#	{En-
8g#	-tre-
4a	-tient
8b	dou-
8cc	-ce-
=17	=17
8cc#	-ment
8cc#	l'ex-
4ff#	-ta-
4cc#}	-se}
=18	=18
{8ccn	{Ou\
8b	ce
4b	soir
8a	m'a
8g	plon-
=19	=19
8g	-ge/
8f	l'a-
[2f	-mour.
=20	=20
4f]}	|}
8r	.
4r	.
8r	.
=21	=21
2.r	.
=22	=22
*M3/4	*
{(4g	{La
4a	ger-
4b	-be
=23	=23
2dd)	d'eau
(4ee	qui
=24	=24
4g	ber-
8g)	-ce
(8g	Ses
8a	mil-
8b	-le
=25	=25
2dd)}	fleurs,}
{8cc	{Que
8g	la
=26	=26
4g	lu-
4f	-ne
4e	tra-
=27	=27
4e	-ver-
8d}	-se}
{8d	{De
8f	ses
8f	pa^-
=28	=28
[2.g#	-leurs,
=29	=29
4g#]}	|}
4r	.
4r	.
=30	=30
{4cc	{Tom-
8a	-be
8a	com-
8g	-me u-
8g	-ne a-
=31	=31
4cc	-ver-
4a}	-se}
{4b	{De
=32	=32
4dd#	lar-
4cc#	|
4dd#	-ges
=33	=33
2ee}	pleurs.}
4r	.
=34	=34
4r	.
4r	.
8r	.
{8c	{Ain-
=35	=35
8e-	-si
8e-	ton
8e-	a^-
8e-	-me
8f	qu'in-
8g	-cen-
=36	=36
4a	-di-
8g}	-e}
{8g	{L'e/-
8a	-clair
8b-	bru^-
=37	=37
4dd	-lant
4b-	des
8g	vo-
8b-	-lup-
=38	=38
[4b-	-te/s
8b-]}	|}
8r	.
8r	.
{8b-	{S'e/-
=39	=39
4bn	-lan-
12a}	-ce,}
12r	.
{12e	{ra-
(12g	-pi-
12a	-de et
12bn)	har-
=40	=40
4b	-di-
4a}	-e,}
{8g	{Vers
8a	les
=41	=41
8b	vas-
8dd	-tes
4dd	cieux
8b	en-
8dd	-chan-
=42	=42
2.dd#}	-te/s.}
=43	=43
4r	.
{4ff#	{Puis,
12ee	el-
12b	-le
12g#	s'e/-
=44	=44
4gn	-pan-
12f#}	-che,}
12r	.
{12g	{mou-
6b	-ran-
12b}	-te,}
=45	=45
4r	.
{8a	{En
8g	un
(12g	flot
12f#)	|
12e	de
=46	=46
(12e-	tris-
12d-	-te
12e-)	lan-
2d-}	-guer,}
=47	=47
8r	.
{8e-	{Qui
8f-	par
8f-	une
8fn	in-
8fn	-vi-
=48	=48
8g-	-si-
8g-	-ble
4cc	pen-
8bn}	-te}
{8a-	{Des-
=49	=49
4g-	-cend
8e-	jus-
8e-	-qu'au
(12d	fond
12en	de
12f)	mon
=50	=50
2.f#}	coeur.}
!! 51-63 as at 22
=64	=64
4r	.
{4g	{O
4b}	toi,}
=65	=65
8r	.
{8b	{que
8b	la
8b	nuit
8ee	rend
8ff#	si
=66	=66
4cc#	bel-
8b}	-le,}
8r	.
{8g	{Qu'il
8g	m'est
=67	=67
4b	doux,
8b	pen-
8b	-che/
8a#	vers
8a#	tes
=68	=68
[4an	seins,
8an]}	|}
8r	.
{8a	{D'e/-
8a	-cou-
=69	=69
4cc#	-ter
8cc#	la
8cc#	plainte
8ee	e/-
8ff#	-ter-
=70	=70
4ff#	-nel-
4cc#}	-le}
{8a	{Qui
8a	san-
=71	=71
4cc	-glo-
8a	-te
8a	dans
8a	les
8a	bas-
=72	=72
*M4/4	*
[2cc	-sins!
4cc]}	|}
4r	.
=73	=73
*M3/4	*
*MM90	*
2.r	.
=74	=74
4r	.
{6g#	{Lu-
12d#}	-ne,}
12r	.
{12g#	{eau
12b	so-
=75	=75
[4dd#	-no-
8dd#]}	-re,}
8r	.
{8dd#	{nuit
8dd#	be/-
=76	=76
[4gg#	-ni-
8gg#]}	-e,}
8r	.
{8ff#	{Ar-
8ddn	-bres
=77	=77
12cc#	qui
12b	fris-
12cc#	-son-
8f#	-nez
8f#	au-
4cc#}	-tour,}
=78	=78
8r	.
{8b	{Vo-
8a	-tre
8f#	pu-
8e	-re
8d	me/-
=79	=79
8c	-lan-
8c	-co-
4d#	-li-
4c}	-e}
=80	=80
8r	.
{8c#	{Est
8c#	le
8c#	mi-
8f#	-roir
8f#	de
=81	=81
8f#	mon
8a	a-
[2a	-mour.
=82	=82
4a]}	|}
4r	.
4r	.
!!83-end like 22 again
*-	*-
